Icons/rename_me_franco_kernel_updater.svg

<svg viewBox="0 0 48 48" xmlns:xlink="http://www.w3.org/1999/xlink">
 <defs>
  <linearGradient id="0">
   <stop stop-opacity="0"/>
   <stop offset="1"/>
  </linearGradient>
  <linearGradient xlink:href="#0" id="1" gradientUnits="userSpaceOnUse" gradientTransform="translate(4e-7,-48)" y1="47" x2="0" y2="1"/>
  <clipPath id="2">
   <g transform="translate(0,-1004.3622)">
    <rect rx="4" y="1005.36" x="1" height="46" width="46" fill="#1890d0"/>
   </g>
  </clipPath>
  <clipPath id="3">
   <g transform="translate(0,-1004.3622)">
    <rect rx="4" y="1005.36" x="1" height="46" width="46" fill="#1890d0"/>
   </g>
  </clipPath>
 </defs>
 <g>
  <g transform="translate(0,-1004.3622)">
   <path d="m 5,1006.3622 c -2.216,0 -4,1.784 -4,4 l 0,37.25 c 0,2.216 1.784,4 4,4 l 38,0 c 2.216,0 4,-1.784 4,-4 l 0,-37.25 c 0,-2.216 -1.784,-4 -4,-4 l -38,0 z m -4,41.5 0,0.5 c 0,2.216 1.784,4 4,4 l 38,0 c 2.216,0 4,-1.784 4,-4 l 0,-0.5 c 0,2.216 -1.784,4 -4,4 l -38,0 c -2.216,0 -4,-1.784 -4,-4 z" opacity="0.02"/>
   <path d="m 1,1047.6122 0,0.25 c 0,2.216 1.784,4 4,4 l 38,0 c 2.216,0 4,-1.784 4,-4 l 0,-0.25 c 0,2.216 -1.784,4 -4,4 l -38,0 c -2.216,0 -4,-1.784 -4,-4 z" opacity="0.05"/>
   <rect width="46" height="46" x="1" y="1005.61" rx="4" opacity="0.1"/>
  </g>
 </g>
 <g>
  <g transform="translate(0,-1004.3622)">
   <rect rx="4" y="1005.36" x="1" height="46" width="46" fill="#eeeeee"/>
  </g>
 </g>
 <g>
  <rect transform="scale(1,-1)" width="46" height="46" x="1" y="-46.998" rx="4" opacity="0.1" fill="url(#1)"/>
 </g>
 <g>
  <g clip-path="url(#2)">
   <g opacity="0.1">
    <g>
     <path d="M 41 27 C 41 27.554688 40.554688 28 40 28 L 36 28 C 35.445312 28 35 27.554688 35 27 C 35 26.445312 35.445312 26 36 26 L 40 26 C 40.554688 26 41 26.445312 41 27 Z M 41 23 C 41 23.554688 40.554688 24 40 24 L 36 24 C 35.445312 24 35 23.554688 35 23 C 35 22.445312 35.445312 22 36 22 L 40 22 C 40.554688 22 41 22.445312 41 23 Z M 41 19 C 41 19.554688 40.554688 20 40 20 L 36 20 C 35.445312 20 35 19.554688 35 19 C 35 18.445312 35.445312 18 36 18 L 40 18 C 40.554688 18 41 18.445312 41 19 Z M 13 27 C 13 27.554688 12.554688 28 12 28 L 8 28 C 7.445312 28 7 27.554688 7 27 C 7 26.445312 7.445312 26 8 26 L 12 26 C 12.554688 26 13 26.445312 13 27 Z M 13 23 C 13 23.554688 12.554688 24 12 24 L 8 24 C 7.445312 24 7 23.554688 7 23 C 7 22.445312 7.445312 22 8 22 L 12 22 C 12.554688 22 13 22.445312 13 23 Z M 13 19 C 13 19.554688 12.554688 20 12 20 L 8 20 C 7.445312 20 7 19.554688 7 19 C 7 18.445312 7.445312 18 8 18 L 12 18 C 12.554688 18 13 18.445312 13 19 Z M 28 31 C 28.554688 31 29 31.445312 29 32 L 29 36 C 29 36.554688 28.554688 37 28 37 C 27.445312 37 27 36.554688 27 36 L 27 32 C 27 31.445312 27.445312 31 28 31 Z M 24 31 C 24.554688 31 25 31.445312 25 32 L 25 36 C 25 36.554688 24.554688 37 24 37 C 23.445312 37 23 36.554688 23 36 L 23 32 C 23 31.445312 23.445312 31 24 31 Z M 20 31 C 20.554688 31 21 31.445312 21 32 L 21 36 C 21 36.554688 20.554688 37 20 37 C 19.445312 37 19 36.554688 19 36 L 19 32 C 19 31.445312 19.445312 31 20 31 Z M 28 11 C 28.554688 11 29 11.445312 29 12 L 29 16 C 29 16.554688 28.554688 17 28 17 C 27.445312 17 27 16.554688 27 16 L 27 12 C 27 11.445312 27.445312 11 28 11 Z M 24 11 C 24.554688 11 25 11.445312 25 12 L 25 16 C 25 16.554688 24.554688 17 24 17 C 23.445312 17 23 16.554688 23 16 L 23 12 C 23 11.445312 23.445312 11 24 11 Z M 20 11 C 20.554688 11 21 11.445312 21 12 L 21 16 C 21 16.554688 20.554688 17 20 17 C 19.445312 17 19 16.554688 19 16 L 19 12 C 19 11.445312 19.445312 11 20 11 Z M 20 11 "/>
     <path d="M 14 16 C 12.890625 16 12 16.890625 12 18 L 12 30 C 12 31.109375 12.890625 32 14 32 L 34 32 C 35.109375 32 36 31.109375 36 30 L 36 18 C 36 16.890625 35.109375 16 34 16 Z M 15 18 L 22 18 L 22 20 L 17 20 L 17 23 L 22 23 L 22 25 L 17 25 L 17 30 L 15 30 Z M 26 18 L 28 18 L 28 24 L 28.5 24 L 31 18 L 33 18 L 30 24.5 L 33 30 L 31 30 L 28.5 25 L 28 25 L 28 30 L 26 30 Z M 26 18 "/>
    </g>
   </g>
  </g>
 </g>
 <g>
  <g clip-path="url(#3)">
   <g transform="translate(0,-1)">
    <g>
     <path d="M 41 27 C 41 27.554688 40.554688 28 40 28 L 36 28 C 35.445312 28 35 27.554688 35 27 C 35 26.445312 35.445312 26 36 26 L 40 26 C 40.554688 26 41 26.445312 41 27 Z M 41 23 C 41 23.554688 40.554688 24 40 24 L 36 24 C 35.445312 24 35 23.554688 35 23 C 35 22.445312 35.445312 22 36 22 L 40 22 C 40.554688 22 41 22.445312 41 23 Z M 41 19 C 41 19.554688 40.554688 20 40 20 L 36 20 C 35.445312 20 35 19.554688 35 19 C 35 18.445312 35.445312 18 36 18 L 40 18 C 40.554688 18 41 18.445312 41 19 Z M 13 27 C 13 27.554688 12.554688 28 12 28 L 8 28 C 7.445312 28 7 27.554688 7 27 C 7 26.445312 7.445312 26 8 26 L 12 26 C 12.554688 26 13 26.445312 13 27 Z M 13 23 C 13 23.554688 12.554688 24 12 24 L 8 24 C 7.445312 24 7 23.554688 7 23 C 7 22.445312 7.445312 22 8 22 L 12 22 C 12.554688 22 13 22.445312 13 23 Z M 13 19 C 13 19.554688 12.554688 20 12 20 L 8 20 C 7.445312 20 7 19.554688 7 19 C 7 18.445312 7.445312 18 8 18 L 12 18 C 12.554688 18 13 18.445312 13 19 Z M 28 31 C 28.554688 31 29 31.445312 29 32 L 29 36 C 29 36.554688 28.554688 37 28 37 C 27.445312 37 27 36.554688 27 36 L 27 32 C 27 31.445312 27.445312 31 28 31 Z M 24 31 C 24.554688 31 25 31.445312 25 32 L 25 36 C 25 36.554688 24.554688 37 24 37 C 23.445312 37 23 36.554688 23 36 L 23 32 C 23 31.445312 23.445312 31 24 31 Z M 20 31 C 20.554688 31 21 31.445312 21 32 L 21 36 C 21 36.554688 20.554688 37 20 37 C 19.445312 37 19 36.554688 19 36 L 19 32 C 19 31.445312 19.445312 31 20 31 Z M 28 11 C 28.554688 11 29 11.445312 29 12 L 29 16 C 29 16.554688 28.554688 17 28 17 C 27.445312 17 27 16.554688 27 16 L 27 12 C 27 11.445312 27.445312 11 28 11 Z M 24 11 C 24.554688 11 25 11.445312 25 12 L 25 16 C 25 16.554688 24.554688 17 24 17 C 23.445312 17 23 16.554688 23 16 L 23 12 C 23 11.445312 23.445312 11 24 11 Z M 20 11 C 20.554688 11 21 11.445312 21 12 L 21 16 C 21 16.554688 20.554688 17 20 17 C 19.445312 17 19 16.554688 19 16 L 19 12 C 19 11.445312 19.445312 11 20 11 Z M 20 11 " fill="#2d2d2d"/>
     <path d="M 14 16 C 12.890625 16 12 16.890625 12 18 L 12 30 C 12 31.109375 12.890625 32 14 32 L 34 32 C 35.109375 32 36 31.109375 36 30 L 36 18 C 36 16.890625 35.109375 16 34 16 Z M 15 18 L 22 18 L 22 20 L 17 20 L 17 23 L 22 23 L 22 25 L 17 25 L 17 30 L 15 30 Z M 26 18 L 28 18 L 28 24 L 28.5 24 L 31 18 L 33 18 L 30 24.5 L 33 30 L 31 30 L 28.5 25 L 28 25 L 28 30 L 26 30 Z M 26 18 " fill="#2d2d2d"/>
    </g>
   </g>
  </g>
 </g>
 <g>
  <g transform="translate(0,-1004.3622)">
   <path d="m 1,1043.3622 0,4 c 0,2.216 1.784,4 4,4 l 38,0 c 2.216,0 4,-1.784 4,-4 l 0,-4 c 0,2.216 -1.784,4 -4,4 l -38,0 c -2.216,0 -4,-1.784 -4,-4 z" opacity="0.1"/>
  </g>
 </g>
</svg>

<svg viewBox="0 0 48 48"><defs><linearGradient id="linearGradient3764" x1="1" x2="47" gradientUnits="userSpaceOnUse" gradientTransform="translate(-48.000001,0.00221467)"><stop stop-color="#e4e4e4" stop-opacity="1"/><stop offset="1" stop-color="#eee" stop-opacity="1"/></linearGradient><clipPath id="clipPath-402421242"><g transform="translate(0,-1004.3622)"><rect rx="4" y="1005.36" x="1" height="46" width="46" fill="#1890d0"/></g></clipPath><clipPath id="clipPath-415731426"><g transform="translate(0,-1004.3622)"><rect rx="4" y="1005.36" x="1" height="46" width="46" fill="#1890d0"/></g></clipPath></defs><g><path d="m 1 43 l 0 0.25 c 0 2.216 1.784 4 4 4 l 38 0 c 2.216 0 4 -1.784 4 -4 l 0 -0.25 c 0 2.216 -1.784 4 -4 4 l -38 0 c -2.216 0 -4 -1.784 -4 -4 z m 0 0.5 l 0 0.5 c 0 2.216 1.784 4 4 4 l 38 0 c 2.216 0 4 -1.784 4 -4 l 0 -0.5 c 0 2.216 -1.784 4 -4 4 l -38 0 c -2.216 0 -4 -1.784 -4 -4 z" opacity="0.02"/><path d="m 1 43.25 l 0 0.25 c 0 2.216 1.784 4 4 4 l 38 0 c 2.216 0 4 -1.784 4 -4 l 0 -0.25 c 0 2.216 -1.784 4 -4 4 l -38 0 c -2.216 0 -4 -1.784 -4 -4 z" opacity="0.05"/><path d="m 1 43 l 0 0.25 c 0 2.216 1.784 4 4 4 l 38 0 c 2.216 0 4 -1.784 4 -4 l 0 -0.25 c 0 2.216 -1.784 4 -4 4 l -38 0 c -2.216 0 -4 -1.784 -4 -4 z" opacity="0.1"/></g><g><rect width="46" height="46" x="-47" y="1" rx="4" transform="matrix(0,-1,1,0,0,0)" fill="url(#linearGradient3764)" fill-opacity="1"/></g><g><g clip-path="url(#clipPath-402421242)"><g opacity="0.1"><!-- color: #eeeeee --><g><path d="m 41 27 c 0 0.555 -0.445 1 -1 1 l -4 0 c -0.555 0 -1 -0.445 -1 -1 c 0 -0.555 0.445 -1 1 -1 l 4 0 c 0.555 0 1 0.445 1 1 m 0 -4 c 0 0.555 -0.445 1 -1 1 l -4 0 c -0.555 0 -1 -0.445 -1 -1 c 0 -0.555 0.445 -1 1 -1 l 4 0 c 0.555 0 1 0.445 1 1 m 0 -4 c 0 0.555 -0.445 1 -1 1 l -4 0 c -0.555 0 -1 -0.445 -1 -1 c 0 -0.555 0.445 -1 1 -1 l 4 0 c 0.555 0 1 0.445 1 1 m -28 8 c 0 0.555 -0.445 1 -1 1 l -4 0 c -0.555 0 -1 -0.445 -1 -1 c 0 -0.555 0.445 -1 1 -1 l 4 0 c 0.555 0 1 0.445 1 1 m 0 -4 c 0 0.555 -0.445 1 -1 1 l -4 0 c -0.555 0 -1 -0.445 -1 -1 c 0 -0.555 0.445 -1 1 -1 l 4 0 c 0.555 0 1 0.445 1 1 m 0 -4 c 0 0.555 -0.445 1 -1 1 l -4 0 c -0.555 0 -1 -0.445 -1 -1 c 0 -0.555 0.445 -1 1 -1 l 4 0 c 0.555 0 1 0.445 1 1 m 15 12 c 0.555 0 1 0.445 1 1 l 0 4 c 0 0.555 -0.445 1 -1 1 c -0.555 0 -1 -0.445 -1 -1 l 0 -4 c 0 -0.555 0.445 -1 1 -1 m -4 0 c 0.555 0 1 0.445 1 1 l 0 4 c 0 0.555 -0.445 1 -1 1 c -0.555 0 -1 -0.445 -1 -1 l 0 -4 c 0 -0.555 0.445 -1 1 -1 m -4 0 c 0.555 0 1 0.445 1 1 l 0 4 c 0 0.555 -0.445 1 -1 1 c -0.555 0 -1 -0.445 -1 -1 l 0 -4 c 0 -0.555 0.445 -1 1 -1 m 8 -20 c 0.555 0 1 0.445 1 1 l 0 4 c 0 0.555 -0.445 1 -1 1 c -0.555 0 -1 -0.445 -1 -1 l 0 -4 c 0 -0.555 0.445 -1 1 -1 m -4 0 c 0.555 0 1 0.445 1 1 l 0 4 c 0 0.555 -0.445 1 -1 1 c -0.555 0 -1 -0.445 -1 -1 l 0 -4 c 0 -0.555 0.445 -1 1 -1 m -4 0 c 0.555 0 1 0.445 1 1 l 0 4 c 0 0.555 -0.445 1 -1 1 c -0.555 0 -1 -0.445 -1 -1 l 0 -4 c 0 -0.555 0.445 -1 1 -1 m 0 0" fill="#000"/><path d="m 14 16 c -1.109 0 -2 0.891 -2 2 l 0 12 c 0 1.109 0.891 2 2 2 l 20 0 c 1.109 0 2 -0.891 2 -2 l 0 -12 c 0 -1.109 -0.891 -2 -2 -2 m -19 2 l 7 0 l 0 2 l -5 0 l 0 3 l 5 0 l 0 2 l -5 0 l 0 5 l -2 0 m 11 -12 l 2 0 l 0 6 l 0.5 0 l 2.5 -6 l 2 0 l -3 6.5 l 3 5.5 l -2 0 l -2.5 -5 l -0.5 0 l 0 5 l -2 0 m 0 -12" fill="#000"/></g></g></g></g><g><g clip-path="url(#clipPath-415731426)"><g transform="translate(0,-1)"><!-- color: #eeeeee --><g><path d="m 41 27 c 0 0.555 -0.445 1 -1 1 l -4 0 c -0.555 0 -1 -0.445 -1 -1 c 0 -0.555 0.445 -1 1 -1 l 4 0 c 0.555 0 1 0.445 1 1 m 0 -4 c 0 0.555 -0.445 1 -1 1 l -4 0 c -0.555 0 -1 -0.445 -1 -1 c 0 -0.555 0.445 -1 1 -1 l 4 0 c 0.555 0 1 0.445 1 1 m 0 -4 c 0 0.555 -0.445 1 -1 1 l -4 0 c -0.555 0 -1 -0.445 -1 -1 c 0 -0.555 0.445 -1 1 -1 l 4 0 c 0.555 0 1 0.445 1 1 m -28 8 c 0 0.555 -0.445 1 -1 1 l -4 0 c -0.555 0 -1 -0.445 -1 -1 c 0 -0.555 0.445 -1 1 -1 l 4 0 c 0.555 0 1 0.445 1 1 m 0 -4 c 0 0.555 -0.445 1 -1 1 l -4 0 c -0.555 0 -1 -0.445 -1 -1 c 0 -0.555 0.445 -1 1 -1 l 4 0 c 0.555 0 1 0.445 1 1 m 0 -4 c 0 0.555 -0.445 1 -1 1 l -4 0 c -0.555 0 -1 -0.445 -1 -1 c 0 -0.555 0.445 -1 1 -1 l 4 0 c 0.555 0 1 0.445 1 1 m 15 12 c 0.555 0 1 0.445 1 1 l 0 4 c 0 0.555 -0.445 1 -1 1 c -0.555 0 -1 -0.445 -1 -1 l 0 -4 c 0 -0.555 0.445 -1 1 -1 m -4 0 c 0.555 0 1 0.445 1 1 l 0 4 c 0 0.555 -0.445 1 -1 1 c -0.555 0 -1 -0.445 -1 -1 l 0 -4 c 0 -0.555 0.445 -1 1 -1 m -4 0 c 0.555 0 1 0.445 1 1 l 0 4 c 0 0.555 -0.445 1 -1 1 c -0.555 0 -1 -0.445 -1 -1 l 0 -4 c 0 -0.555 0.445 -1 1 -1 m 8 -20 c 0.555 0 1 0.445 1 1 l 0 4 c 0 0.555 -0.445 1 -1 1 c -0.555 0 -1 -0.445 -1 -1 l 0 -4 c 0 -0.555 0.445 -1 1 -1 m -4 0 c 0.555 0 1 0.445 1 1 l 0 4 c 0 0.555 -0.445 1 -1 1 c -0.555 0 -1 -0.445 -1 -1 l 0 -4 c 0 -0.555 0.445 -1 1 -1 m -4 0 c 0.555 0 1 0.445 1 1 l 0 4 c 0 0.555 -0.445 1 -1 1 c -0.555 0 -1 -0.445 -1 -1 l 0 -4 c 0 -0.555 0.445 -1 1 -1 m 0 0" fill="#2d2d2d"/><path d="m 14 16 c -1.109 0 -2 0.891 -2 2 l 0 12 c 0 1.109 0.891 2 2 2 l 20 0 c 1.109 0 2 -0.891 2 -2 l 0 -12 c 0 -1.109 -0.891 -2 -2 -2 m -19 2 l 7 0 l 0 2 l -5 0 l 0 3 l 5 0 l 0 2 l -5 0 l 0 5 l -2 0 m 11 -12 l 2 0 l 0 6 l 0.5 0 l 2.5 -6 l 2 0 l -3 6.5 l 3 5.5 l -2 0 l -2.5 -5 l -0.5 0 l 0 5 l -2 0 m 0 -12" fill="#2d2d2d"/></g></g></g></g><g><g transform="translate(0,-1004.3622)"><path d="m 1 1043.36 0 4 c 0 2.216 1.784 4 4 4 l 38 0 c 2.216 0 4 -1.784 4 -4 l 0 -4 c 0 2.216 -1.784 4 -4 4 l -38 0 c -2.216 0 -4 -1.784 -4 -4 z" opacity="0.1"/></g></g></svg>
